!!!COM: Anon.
!!!OTL: Villarcicos
!! Maria Cadilla de Martinez,
!! Juegos Y Canciones Infantiles de Puerto Rico
!! Talleres Graficos, Cas Baldrich, Brau 93, San Juan, P.R.
!! 1940.  Derechos reservados de la Autora
!! page 59
!! Allegretto
**kern
*clefG2
*k[b-e-]
*M2/4
=1-
!! Moved rest from end of work to beginning.
8r
{16dd
16ee-
8dd
8cc
=
4.b-
8cc
=
8ee-
8dd
8cc
8b-
*M3/4
=
4dd
2cc},
*M2/4
=
8r
{16cc
16dd
8cc
8b-
=
4.a
8b-
=
8dd
8cc
8b-
8a
*M3/4
=
4cc
2b-},
=
{4.b-
8cc
=
8ee-
8dd
8cc
8b-
*M3/4
=
4dd
2cc},
*M2/4
=
8r
{16cc
16dd
8cc
8b-
=
4.a
8b-
=
8dd
8cc
8b-
8a
*M3/4
=
4cc
2b-}
==
*-
